!!!OTL: Brigantine Sinorca
!!!ONM: 106.
**kern
*clefG2
*k[]
*C:
*M6/8
*MM120
{8c
=1
4e
8e
4e
8e
=2
4.e
4e}
{8c
=3
4d
8d
4c
8B
=4
4.c
4r}
{8c
=5
4c
8d
4e
8e
=6
4.e
4e}
{8d
=7
4c
8d
4e
8f
=8
4.g
4r}
{8c
=9
4c
8c
4c
8c
=10
8c
4cc
4r}
{8a
=11
4a
8a
4g
8e
=12
4.g
4r}
{(16e
16f)
=13
4g
8g
4e
8f
=14
4.g}
{4c
8c
=15
4d
8d
4c
8B
=16
4.c}
=||
{4c
8d
=17
4.e
4.e
=18
4.e
4.e}
=19
{4d
8d
4c
8B
=20
4.c
4r}
{8c
=21
4c
8d
4e
8e
=22
4e
8e
4e}
{8d
=23
4c
8d
4e
8f
=24
4.g
4r}
{8c
=25
8c
8c
8c
4c
8c
=26
8c
4.cc
8r}
{8cc
=27
4cc
8cc
4cc
8e
=28
4.f
4r}
{16e
16g
=29
4g
8g
4e
8g
=30
4g
8g}
{4c
8c
=31
4d
8d
4c
8B
=32
4.c
4r}
==
*-
!!!CNT: Folksongs of Maritime Canada
!!!MRD: 1928///-1932///
!!!OCL: Helen Creighton
!!!YOR: Songs and Ballads from Nova Scotia
!!!PPR: J.M. Dent & Sons, Limited
!!!PPP: Toronto, Canada
!!!PDT: 1932///
!!!reprint: Dover Publications, 1992: ISBN 0-486-21703-5
!!!ENC1: Craig Stuart Sapp (music and bibliographic data)                       
!!!ENC2: Marcus Pearce (phrase markings and key designations)                   
!!!ENC3: Darrell Conklin (phrase markings and key designations)   
!!!END: 2002/04/10/
!!!EEV: 2004/06/05
!!!MPN: Mr. Richard Hartlan
!!!PPG: 228
!!!EFL: 107/152
!!!ARE: Canada; Nova Scotia
!!!verses: 1
!!!VTS: 1210296433
